X: 8
T: In hydraulis
N: Derived from Bus2007-In_hydraulis.krn
C: Antoine Busnoys
%%abc-version 2.0
%%abcx-abcm2ps-target-version 5.9.1 (29 Sep 2008)
%%abc-creator hum2abc beta
%%abcx-conversion-date 2019/02/16 20:26:06
%%abc-edited-by Jesse Rodin
%%abc-edited-by Will Watson 07/11/12
%%abcx-initial-encoding-date 2015/12/06/ (text added)
%%humdrum-veritas 3965354025
%%humdrum-veritas-data 2447581376
%%linebreak <none>
%%barnumbers 0
L: 1/4
M: 3/1
Q: 1/2=120
%%staves [1 2 3 4]
V: 1 clef=treble
V: 2 clef=treble-8
V: 3 clef=treble-8
V: 4 clef=bass
K: F
[V:1] D8E4 | 
[V:2] d8c4 | 
[V:3] z12 | 
[V:4] z12 | 
[V:1] F4G6F2 | 
[V:2] d4e6d2 | 
[V:3] z12 | 
[V:4] z12 | 
[V:1] F4E2F4D2 | 
[V:2] d4c2A2B4 | 
[V:3] z12 | 
[V:4] z12 | 
[V:1] C3DE2D4C=B, | 
[V:2] A2A4F2G4 | 
[V:3] z12 | 
[V:4] z12 | 
[V:1] A,2C4D2E2G2 | 
[V:2] F3GA2G4FE | 
[V:3] z12 | 
[V:4] z12 | 
[V:1] F2E3DD4^C2 | 
[V:2] D2C2D2F2E4 | 
[V:3] z12 | 
[V:4] z12 | 
[V:1] D12 | 
[V:2] D8z4 | 
[V:3] z12 | 
[V:4] z4z4D,4 | 
[V:1] z12 | 
[V:2] A6B2c3B | 
[V:3] z12 | 
[V:4] F,6G,2A,4 | 
[V:1] z12 | 
[V:2] d6c2d3f | 
[V:3] z12 | 
[V:4] F,2G,4E,2F,2D,2 | 
[V:1] z12 | 
[V:2] e3dBAd3^c^c=B | 
[V:3] z12 | 
[V:4] C,2G,3D,F,2E,4 | 
[V:1] z12 | 
[V:2] d4z2d2g2f2 | 
[V:3] z12 | 
[V:4] D,2G,4F,2E,2D,2 | 
[V:1] z12 | 
[V:2] e2d2c4f2e2 | 
[V:3] z12 | 
[V:4] C,2F,4E,2D,2C,2 | 
[V:1] z12 | 
[V:2] d2c2B4_e2d2 | 
[V:3] z12 | 
[V:4] B,,2_E,4D,2C,2B,,2 | 
[V:1] z12 | 
[V:2] c2B2A4d2c2 | 
[V:3] z12 | 
[V:4] A,,2D,4C,2B,,2A,,2 | 
[V:1] z4z4D4 | 
[V:2] B2A2G2A4G2 | 
[V:3] z12 | 
[V:4] G,,2C,4A,,2B,,4 | 
[V:1] C2E4F2G4 | 
[V:2] A2c4d2e4 | 
[V:3] z12 | 
[V:4] A,,4z4C,4 | 
[V:1] F2A4G2A2F2 | 
[V:2] d2f4e2c2d2 | 
[V:3] z12 | 
[V:4] D,6E,2F,4 | 
[V:1] E2A4F2G2E2 | 
[V:2] e2f4d4^c2 | 
[V:3] z12 | 
[V:4] G,2D,2F,4E,4 | 
[V:1] F6G2A4 | 
[V:2] d4z4A4 | 
[V:3] D12- | 
[V:4] D,12 | 
[V:1] D4z4z4 | 
[V:2] B6AGF3G | 
[V:3] D12 | 
[V:4] B,,12 | 
[V:1] E12 | 
[V:2] A6G2E4 | 
[V:3] C12 | 
[V:4] A,,12 | 
[V:1] F6D2D4- | 
[V:2] D4A4F2B2- | 
[V:3] D12- | 
[V:4] z4z4B,,4 | 
[V:1] D4D6E2 | 
[V:2] BAG2F2G3FE2 | 
[V:3] D12 | 
[V:4] B,,6G,,2B,,2C,2 | 
[V:1] F2G4F4E2 | 
[V:2] D2B4A2G4 | 
[V:3] z12 | 
[V:4] D,2B,,2_E,2F,2C,4 | 
[V:1] F8z4 | 
[V:2] F6G2A4 | 
[V:3] A12- | 
[V:4] D,12- | 
[V:1] F4A6G2 | 
[V:2] D12 | 
[V:3] A12 | 
[V:4] D,4F,6E,2 | 
[V:1] E4D6C2 | 
[V:2] z4z4D4 | 
[V:3] G12 | 
[V:4] C,4B,,6A,,2 | 
[V:1] C4z4D4 | 
[V:2] E4F6E2 | 
[V:3] A12- | 
[V:4] A,,4D,6C,2 | 
[V:1] E2E4D2C3=B, | 
[V:2] E4C2D2E4 | 
[V:3] A12 | 
[V:4] A,,4z4A,,4 | 
[V:1] A,2D3EF2G4 | 
[V:2] F4D4E4 | 
[V:3] z12 | 
[V:4] D,2F,4E,D,^C,3=B,, | 
[V:1] F8A4- | 
[V:2] D12 | 
[V:3] d12- | 
[V:4] D,8F,4 | 
[V:1] A4=B8 | 
[V:2] z12 | 
[V:3] d12 | 
[V:4] F,4G,8 | 
[V:1] c6=B2G4 | 
[V:2] z4z4G4 | 
[V:3] c12 | 
[V:4] A,6G,2E,4 | 
[V:1] F6D2D4 | 
[V:2] A4B4A4 | 
[V:3] d12- | 
[V:4] D,4z2G,4F,2 | 
[V:1] z2D2F3GA2D2- | 
[V:2] G2F2D4z2F2 | 
[V:3] d12 | 
[V:4] G,2D,4B,,2C,2D,2 | 
[V:1] D2A,4D2^C2=B,2 | 
[V:2] G2A2D4E4 | 
[V:3] z12 | 
[V:4] G,,2D,3C,B,,2A,,4 | 
[V:1] D6F3GA2 | 
[V:2] D8F4 | 
[V:3] d12- | 
[V:4] B,,6D,6 | 
[V:1] B6A2F3G | 
[V:2] G4D8 | 
[V:3] d12 | 
[V:4] G,,4z4z4 | 
[V:1] E2A4GFE4 | 
[V:2] A4F2G2A4 | 
[V:3] c12 | 
[V:4] z4z4A,,4 | 
[V:1] D4z4z4 | 
[V:2] D4z4A4 | 
[V:3] d12- | 
[V:4] B,,6A,,G,,^F,,3E,, | 
[V:1] D4F4B4 | 
[V:2] G2B3AF2G3F | 
[V:3] d12 | 
[V:4] G,,4z4G,,4 | 
[V:1] A2A4F2G4 | 
[V:2] D2d3cA2B3A | 
[V:3] z12 | 
[V:4] D,4F,4E,4 | 
[V:1] A8z4 | 
[V:2] A4F2D2E4 | 
[V:3] A12- | 
[V:4] F,2D,8C,2 | 
[V:1] A8F4 | 
[V:2] D4z4z4 | 
[V:3] A12 | 
[V:4] D,2F,3E,C,2D,4 | 
[V:1] G3FEDD4^C2 | 
[V:2] z12 | 
[V:3] G12 | 
[V:4] G,,2C,4D,2E,4 | 
[V:1] D4F4E2D2 | 
[V:2] F4D4C4 | 
[V:3] A12- | 
[V:4] D,8A,,4 | 
[V:1] D4C4D2C2 | 
[V:2] D4E6D2 | 
[V:3] A12 | 
[V:4] z4A,,8 | 
[V:1] D8=B,3A, | 
[V:2] D4F4G4 | 
[V:3] z12 | 
[V:4] B,,2G,,2D,4E,4 | 
[V:1] A,4z4z4 | 
[V:2] A12 | 
[V:3] D12- | 
[V:4] F,8B,,4- | 
[V:1] z12 | 
[V:2] B6c2d4 | 
[V:3] D12 | 
[V:4] B,,4G,,4B,,4 | 
[V:1] z4z4C4 | 
[V:2] G6FEF3E | 
[V:3] C12 | 
[V:4] C,4A,,6G,,2 | 
[V:1] =B,6D3CA,2 | 
[V:2] G2d3cc2A4 | 
[V:3] D12- | 
[V:4] G,,8F,,4 | 
[V:1] B,6G,3A,B,2 | 
[V:2] G4z4G4 | 
[V:3] D12 | 
[V:4] G,,6B,,4A,,G,, | 
[V:1] C2A,2B,2D3CA,2 | 
[V:2] A4G2G4^F2 | 
[V:3] z12 | 
[V:4] F,,4G,,4A,,4 | 
[V:1] B,2G,2F,2G,B,2CA,2 | 
[V:2] G4z4z4 | 
[V:3] z12 | 
[V:4] G,,B,,2C,A,,2G,,2z2F,2 | 
[V:1] G,2z2F2GB2cA2 | 
[V:2] z12 | 
[V:3] z12 | 
[V:4] G,B,2CA,2G,3E,F,2 | 
[V:1] G3EF2GE2CD2 | 
[V:2] z12 | 
[V:3] z12 | 
[V:4] G,E,2C,D,2C,3A,,B,,2 | 
[V:1] C3A,=B,2CE2FD2 | 
[V:2] z12 | 
[V:3] z12 | 
[V:4] C,E,2F,D,2C,4B,,2 | 
[V:1] C4=B,2G,2A,4 | 
[V:2] z12 | 
[V:3] z12 | 
[V:4] C,2E,2D,2G,4^F,2 | 
[V:1] G,2=B,2A,2D3^CCB, | 
[V:2] z4z4G4 | 
[V:3] z12 | 
[V:4] G,4F,2D,2E,4 | 
[V:1] D4z4 :
[V:2] A4d4- :
[V:3] [M:4/2]D8- | 
[V:4] D,8 :
[V:1] z4 [I:setbarnb 62]| 
[V:2] d2c2 | 
[V:3] D4- :
[V:4] F,4- | 
[V:1] x4 :
[V:2] f4- :
[V:3] D4 | 
[V:4] F,4 :
[V:1] z8 [I:setbarnb 63]| 
[V:2] f2e2e2d2 | 
[V:3] C8 | 
[V:4] G,8 | 
[V:1] A6F2- :
[V:2] f6d2- :
[V:3] D8- | 
[V:4] F,6B,2- :
[V:1] F2G2 [I:setbarnb 64]| 
[V:2] d4 | 
[V:3] D4- :
[V:4] B,2A,2 | 
[V:1] A4- :
[V:2] A4- :
[V:3] D4 | 
[V:4] F,4- :
[V:1] A2D4E2 [I:setbarnb 65]| 
[V:2] A2B4A2 | 
[V:3] z8 | 
[V:4] F,2G,4F,2 | 
[V:1] F8 :
[V:2] F8 :
[V:3] A8- | 
[V:4] D,8 :
[V:1] E4 [I:setbarnb 66]| 
[V:2] z4 | 
[V:3] A4- :
[V:4] C,4- | 
[V:1] C4 :
[V:2] z4 :
[V:3] A4 | 
[V:4] C,4 :
[V:1] D6C2 [I:setbarnb 67]| 
[V:2] D8 | 
[V:3] G8 | 
[V:4] B,,8 | 
[V:1] C8 :
[V:2] E3FG2A2- :
[V:3] A8- | 
[V:4] A,,8 :
[V:1] F4 [I:setbarnb 68]| 
[V:2] A2d2- | 
[V:3] A4- :
[V:4] D,4 | 
[V:1] A4 :
[V:2] def2 :
[V:3] A4 | 
[V:4] F,4 :
[V:1] G2G4E2 [I:setbarnb 69]| 
[V:2] gfed^c3=B | 
[V:3] z8 | 
[V:4] E,6D,2 | 
[V:1] F4G4 :
[V:2] d4B2G2- :
[V:3] d8- | 
[V:4] D,4z4 :
[V:1] A4 [I:setbarnb 70]| 
[V:2] G2F2 | 
[V:3] d4- :
[V:4] z4 | 
[V:1] G4 :
[V:2] G2B2 :
[V:3] d4 | 
[V:4] z4 :
[V:1] z4G4 [I:setbarnb 71]| 
[V:2] A2GFE3D | 
[V:3] c8 | 
[V:4] z4C,4 | 
[V:1] F2D3CA,2 :
[V:2] D4z2F2 :
[V:3] d8- | 
[V:4] F,4D,4 :
[V:1] B,2G,2- [I:setbarnb 72]| 
[V:2] G3A | 
[V:3] d4- :
[V:4] B,,4 | 
[V:1] G,2D2- :
[V:2] B2AG :
[V:3] d4 | 
[V:4] G,,3A,, :
[V:1] DCB,2A,4 [I:setbarnb 73]| 
[V:2] F2G4^F2 | 
[V:3] z8 | 
[V:4] B,,2G,,2D,4 | 
[V:1] G,2B,3CD2- :
[V:2] G8 :
[V:3] d8- | 
[V:4] G,,8 :
[V:1] D2G2- [I:setbarnb 74]| 
[V:2] z4 | 
[V:3] d4- :
[V:4] G,4- | 
[V:1] GAB2 :
[V:2] z4 :
[V:3] d4 | 
[V:4] G,4 :
[V:1] cBAG^F3E [I:setbarnb 75]| 
[V:2] x8 | 
[V:3] c8 | 
[V:4] A,8 | 
[V:1] G4z4 :
[V:2] B6A2 :
[V:3] d8- | 
[V:4] G,6F,2 :
[V:1] z4 [I:setbarnb 76]| 
[V:2] F4 | 
[V:3] d4- :
[V:4] D,4 | 
[V:1] A4 :
[V:2] z2A2- :
[V:3] d4 | 
[V:4] F,4- :
[V:1] F2G4E2 [I:setbarnb 77]| 
[V:2] A2G2E4 | 
[V:3] z8 | 
[V:4] F,2E,2C,4 | 
[V:1] D4z4 :
[V:2] F6E2 :
[V:3] A8- | 
[V:4] D,6C,2 :
[V:1] z4 [I:setbarnb 78]| 
[V:2] C4 | 
[V:3] A4- :
[V:4] A,,4 | 
[V:1] E4 :
[V:2] z2E2- :
[V:3] A4 | 
[V:4] C,4- :
[V:1] C2D4=B,2 [I:setbarnb 79]| 
[V:2] E2D2=B,4 | 
[V:3] G8 | 
[V:4] C,2B,,2G,,4 | 
[V:1] A,4z2A2- :
[V:2] z2D4F2- :
[V:3] A8- | 
[V:4] D,4F,4 :
[V:1] AGFE [I:setbarnb 80]| 
[V:2] FED2- | 
[V:3] A4- :
[V:4] D,4 | 
[V:1] F2E2 :
[V:2] D2C2 :
[V:3] A4 | 
[V:4] z2A,,2 :
[V:1] EDD3=B,^C2 [I:setbarnb 81]| 
[V:2] D4E4 | 
[V:3] z8 | 
[V:4] B,,4A,,4 | 
[V:1] D2D3C=B,A, :
[V:2] D8 :
[V:3] D8- | 
[V:4] z2B,,2G,,4 :
[V:1] A,2A,2- [I:setbarnb 82]| 
[V:2] F4 | 
[V:3] D4- :
[V:4] F,,4 | 
[V:1] A,G,G,F, :
[V:2] D4 :
[V:3] D4 | 
[V:4] B,,4 :
[V:1] A,2C3DE2 [I:setbarnb 83]| 
[V:2] E8 | 
[V:3] C8 | 
[V:4] A,,8 | 
[V:1] F6D2D4- | 
[V:2] D2d3cBAB3A | 
[V:3] D12- | 
[V:4] D,12- | 
[V:1] D12 ||  
[V:2] A12 ||  
[V:3] D12 ||  
[V:4] D,12 ||  
[V:1]  [K:F] [K:clef=treble][M:2/1]z8 | 
[V:2]  [K:F] [K:clef=treble-8][M:2/1]z8 | 
[V:3]  [K:F] [K:clef=treble-8][M:2/1]z8 | 
[V:4]  [K:F] [K:clef=bass][M:2/1]G,8 | 
[V:1] z8 | 
[V:2] z8 | 
[V:3] z8 | 
[V:4] B,4A,4- | 
[V:1] z8 | 
[V:2] z8 | 
[V:3] z8 | 
[V:4] A,2G,2F,4 | 
[V:1] G8 | 
[V:2] z8 | 
[V:3] z8 | 
[V:4] E,8 | 
[V:1] B4A4- | 
[V:2] z8 | 
[V:3] z8 | 
[V:4] D,8- | 
[V:1] A2G2F4 | 
[V:2] z8 | 
[V:3] z8 | 
[V:4] D,8 | 
[V:1] E8 | 
[V:2] G8 | 
[V:3] z8 | 
[V:4] C,8 | 
[V:1] D4F4 | 
[V:2] B4A4- | 
[V:3] z8 | 
[V:4] D,8 | 
[V:1] E4A4- | 
[V:2] A2G2F4 | 
[V:3] z8 | 
[V:4] z8 | 
[V:1] A4G4 | 
[V:2] E8 | 
[V:3] z8 | 
[V:4] z8 | 
[V:1] F4D4 | 
[V:2] D4F4 | 
[V:3] z8 | 
[V:4] z8 | 
[V:1] C8 | 
[V:2] E4A4- | 
[V:3] z8 | 
[V:4] z8 | 
[V:1] z8 | 
[V:2] A4G4 | 
[V:3] z8 | 
[V:4] z8 | 
[V:1] D8 | 
[V:2] F4D4 | 
[V:3] z8 | 
[V:4] z8 | 
[V:1] E8 | 
[V:2] C8 | 
[V:3] z8 | 
[V:4] z8 | 
[V:1] D4F4- | 
[V:2] z8 | 
[V:3] z8 | 
[V:4] z8 | 
[V:1] F2E2D4- | 
[V:2] D8 | 
[V:3] z8 | 
[V:4] z8 | 
[V:1] D4^C4 | 
[V:2] E8 | 
[V:3] z8 | 
[V:4] z8 | 
[V:1] D6A2- | 
[V:2] D4F4- | 
[V:3] z8 | 
[V:4] z8 | 
[V:1] A2GAB2A2- | 
[V:2] F2E2D4- | 
[V:3] z8 | 
[V:4] z8 | 
[V:1] AGF2E3D | 
[V:2] D4^C4 | 
[V:3] z8 | 
[V:4] z8 | 
[V:1] D4F4 | 
[V:2] D6A2- | 
[V:3] z8 | 
[V:4] z8 | 
[V:1] E4D2C2 | 
[V:2] A2GAB2A2- | 
[V:3] z8 | 
[V:4] z8 | 
[V:1] A,2D4^C2 | 
[V:2] AGF2E3D | 
[V:3] z8 | 
[V:4] z8 | 
[V:1] D8 | 
[V:2] D4z4 | 
[V:3] z8 | 
[V:4] z8 | 
[V:1] z8 | 
[V:2] F4G2A2- | 
[V:3] z8 | 
[V:4] z8 | 
[V:1] F4G2A2- | 
[V:2] A2D2E2F2 | 
[V:3] z8 | 
[V:4] z8 | 
[V:1] A2D2E2F2 | 
[V:2] D4z4 | 
[V:3] z8 | 
[V:4] z8 | 
[V:1] D4z4 | 
[V:2] G4F2D2 | 
[V:3] z8 | 
[V:4] z8 | 
[V:1] G4F2D2 | 
[V:2] E4D2G2- | 
[V:3] z8 | 
[V:4] z8 | 
[V:1] E4D2G2- | 
[V:2] G2A2B4 | 
[V:3] z8 | 
[V:4] z8 | 
[V:1] G2A2B4 | 
[V:2] c3BG4 | 
[V:3] z8 | 
[V:4] z8 | 
[V:1] c3BG4 | 
[V:2] z2F2G2E2 | 
[V:3] z8 | 
[V:4] z8 | 
[V:1] z2F2G2E2 | 
[V:2] F2D2C4 | 
[V:3] z8 | 
[V:4] z8 | 
[V:1] F2D2C4 | 
[V:2] D4E4 | 
[V:3] z8 | 
[V:4] z8 | 
[V:1] D4E4 | 
[V:2] D2d4c2 | 
[V:3] z8 | 
[V:4] z8 | 
[V:1] D4C3D | 
[V:2] d2f2e2A2- | 
[V:3] z8 | 
[V:4] z8 | 
[V:1] E2A,2=B,2C2 | 
[V:2] AGF2E2e2- | 
[V:3] z8 | 
[V:4] z8 | 
[V:1] A,2A4G2 | 
[V:2] edc2=B4 | 
[V:3] z8 | 
[V:4] z8 | 
[V:1] A2c2=B2A2- | 
[V:2] z2e4c2 | 
[V:3] z8 | 
[V:4] z8 | 
[V:1] A2G2A2F2- | 
[V:2] d2e2A4 | 
[V:3] z8 | 
[V:4] z8 | 
[V:1] FED2C2D2 | 
[V:2] F2G2A2D2- | 
[V:3] z8 | 
[V:4] z8 | 
[V:1] F2E4D2- | 
[V:2] D2C2D2F2 | 
[V:3] z8 | 
[V:4] z8 | 
[V:1] D2C2D2=B,2 | 
[V:2] E4z2G2 | 
[V:3] z8 | 
[V:4] z8 | 
[V:1] A,4z2D2 | 
[V:2] A2c2B4 | 
[V:3] z8 | 
[V:4] z8 | 
[V:1] E2G2F2ED | 
[V:2] z2c2d2f2 | 
[V:3] z8 | 
[V:4] z8 | 
[V:1] C2A,2=B,2D2- | 
[V:2] e2c2d2f2 | 
[V:3] z8 | 
[V:4] z8 | 
[V:1] D2C2D2F2 | 
[V:2] e4d4 | 
[V:3] z8 | 
[V:4] z8 | 
[V:1] E2A3GE2 | 
[V:2] z2D4C2 | 
[V:3] z8 | 
[V:4] z8 | 
[V:1] F2D2E2G2 | 
[V:2] D2F2E2C2 | 
[V:3] z8 | 
[V:4] z8 | 
[V:1] F2D4^C2 | 
[V:2] D2F2E4 | 
[V:3] z8 | 
[V:4] z4A,,4 | 
[V:1] D8 | 
[V:2] D4z4 | 
[V:3] z8 | 
[V:4] B,,3C,D,2D,2- | 
[V:1] z8 | 
[V:2] A4B3c | 
[V:3] z8 | 
[V:4] D,C,A,,2G,,2G,2- | 
[V:1] z8 | 
[V:2] d2d3cA2 | 
[V:3] z8 | 
[V:4] G,6F,2 | 
[V:1] z8 | 
[V:2] B2G6- | 
[V:3] z8 | 
[V:4] G,4B,4 | 
[V:1] z8 | 
[V:2] G2^F2G4 | 
[V:3] z8 | 
[V:4] A,4z2G,2- | 
[V:1] z8 | 
[V:2] B4A4 | 
[V:3] z8 | 
[V:4] G,F,/E,/D,E,F,2G,A, | 
[V:1] z8 | 
[V:2] z2G3FDE | 
[V:3] z8 | 
[V:4] B,6A,2- | 
[V:1] z8 | 
[V:2] F2GAB4- | 
[V:3] z8 | 
[V:4] A,4G,2D,2 | 
[V:1] z8 | 
[V:2] B2A6 | 
[V:3] z8 | 
[V:4] G,4F,4 | 
[V:1] B6A2- | 
[V:2] G2D2G4 | 
[V:3] z8 | 
[V:4] G,2G,,2B,,2C,2 | 
[V:1] A4G2D2 | 
[V:2] F4G4- | 
[V:3] z8 | 
[V:4] D,4G,,4 | 
[V:1] G4F4 | 
[V:2] G2A6 | 
[V:3] z8 | 
[V:4] z8 | 
[V:1] G6A2- | 
[V:2] G3FE2D2 | 
[V:3] z8 | 
[V:4] z8 | 
[V:1] A4G3F | 
[V:2] F4G2c2- | 
[V:3] z8 | 
[V:4] z8 | 
[V:1] E2D2F4 | 
[V:2] c2B2A4 | 
[V:3] z8 | 
[V:4] z4D,4 | 
[V:1] G2E3DF2- | 
[V:2] G6F2 | 
[V:3] z8 | 
[V:4] E,2C,4D,2- | 
[V:1] FGFE/D/^C3=B, | 
[V:2] D4E4 | 
[V:3] z8 | 
[V:4] D,2B,,2A,,4 | 
[V:1] D8- | 
[V:2] z4D3E | 
[V:3] D8- | 
[V:4] B,,6A,,G,, | 
[V:1] D8 | 
[V:2] F2G3AB2 | 
[V:3] D8 | 
[V:4] F,,2B,,3C,D,2 | 
[V:1] z8 | 
[V:2] cBAG^F3E | 
[V:3] C8 | 
[V:4] _E,D,C,B,,A,,3G,, | 
[V:1] D8 | 
[V:2] G4B4- | 
[V:3] D8- | 
[V:4] G,,8 | 
[V:1] D8- | 
[V:2] B2A2F4 | 
[V:3] D8 | 
[V:4] B,,8- | 
[V:1] D4E4 | 
[V:2] G6F2 | 
[V:3] z8 | 
[V:4] B,,4C,4 | 
[V:1] F4D4 | 
[V:2] F8 | 
[V:3] A8- | 
[V:4] D,8 | 
[V:1] E4C4 | 
[V:2] E4E4- | 
[V:3] A8 | 
[V:4] C,4A,,4 | 
[V:1] D4B,4 | 
[V:2] E4D4 | 
[V:3] G8 | 
[V:4] B,,8 | 
[V:1] C4A,2D2- | 
[V:2] E4F4 | 
[V:3] A8- | 
[V:4] A,,4D,4- | 
[V:1] DEFGA2D2 | 
[V:2] D8 | 
[V:3] A8 | 
[V:4] D,4F,4 | 
[V:1] E2^C4=B,2 | 
[V:2] G8 | 
[V:3] z8 | 
[V:4] E,8 | 
[V:1] D4F4- | 
[V:2] A6B2- | 
[V:3] d8- | 
[V:4] D,8 | 
[V:1] F2G2A4- | 
[V:2] B2AGF2D2 | 
[V:3] d8 | 
[V:4] z8 | 
[V:1] A2G2E4 | 
[V:2] F2G2A4 | 
[V:3] c8 | 
[V:4] z4A,,4 | 
[V:1] z2F4D2 | 
[V:2] D3EF2G2- | 
[V:3] d8- | 
[V:4] B,,3C,D,2G,,2- | 
[V:1] G2F2B2A2- | 
[V:2] GAB3cd2- | 
[V:3] d8 | 
[V:4] G,,2D,2E,2F,2 | 
[V:1] AGG4^F2 | 
[V:2] dGB2A4 | 
[V:3] z8 | 
[V:4] G,4D,4 | 
[V:1] G2D3EF2- | 
[V:2] G4B4 | 
[V:3] d8- | 
[V:4] G,,2B,,3C,D,2- | 
[V:1] FGA2B2AG | 
[V:2] A4G4 | 
[V:3] d8 | 
[V:4] D,E,F,2G,2A,B, | 
[V:1] AG^FEF3E | 
[V:2] z4c4 | 
[V:3] c8 | 
[V:4] CB,A,G,A,4 | 
[V:1] G4A4 | 
[V:2] B4A4 | 
[V:3] d8- | 
[V:4] G,4F,4 | 
[V:1] B6A2- | 
[V:2] G2B3cd2- | 
[V:3] d8 | 
[V:4] G,6D,2 | 
[V:1] A2F2G4 | 
[V:2] dcA2B2AG | 
[V:3] z8 | 
[V:4] F,4E,4 | 
[V:1] A8- | 
[V:2] F2A3GFE | 
[V:3] A8- | 
[V:4] D,4C,4 | 
[V:1] A8 | 
[V:2] D2d3ef2 | 
[V:3] A8 | 
[V:4] D,8 | 
[V:1] z8 | 
[V:2] e2^c4=B2 | 
[V:3] G8 | 
[V:4] E,8 | 
[V:1] F8 | 
[V:2] d4A4- | 
[V:3] A8- | 
[V:4] D,8 | 
[V:1] E4D4- | 
[V:2] A2G2F4 | 
[V:3] A8 | 
[V:4] C,4D,4 | 
[V:1] D4^C4 | 
[V:2] E6D2 | 
[V:3] z8 | 
[V:4] A,,8 | 
[V:1] D6F2- | 
[V:2] D4A4- | 
[V:3] D8- | 
[V:4] A,8 | 
[V:1] FGA2D2F2- | 
[V:2] A4F4 | 
[V:3] D8 | 
[V:4] F,8 | 
[V:1] F2EDEDC=B, | 
[V:2] c8 | 
[V:3] C8 | 
[V:4] G,8 | 
[V:1] A,4D4- | 
[V:2] z4F4- | 
[V:3] D8- | 
[V:4] F,8 | 
[V:1] D2C2F4- | 
[V:2] F4A4 | 
[V:3] D8 | 
[V:4] z4F,4 | 
[V:1] F2E2E2D2 | 
[V:2] G8 | 
[V:3] z8 | 
[V:4] C,8 | 
[V:1] F8 | 
[V:2] F8- | 
[V:3] z8 | 
[V:4] D,4B,,4- | 
[V:1] z8 | 
[V:2] F8 | 
[V:3] z8 | 
[V:4] B,,2C,2D,4 | 
[V:1] B8 | 
[V:2] z8 | 
[V:3] z8 | 
[V:4] G,,8 | 
[V:1] A4A4- | 
[V:2] z8 | 
[V:3] z8 | 
[V:4] F,,8 | 
[V:1] A4G4 | 
[V:2] B8 | 
[V:3] z8 | 
[V:4] z8 | 
[V:1] A6GF | 
[V:2] A4A4- | 
[V:3] z8 | 
[V:4] z8 | 
[V:1] E8 | 
[V:2] A4G4 | 
[V:3] z8 | 
[V:4] z8 | 
[V:1] z4F4 | 
[V:2] A6GF | 
[V:3] z8 | 
[V:4] z8 | 
[V:1] G8 | 
[V:2] E8 | 
[V:3] z8 | 
[V:4] z8 | 
[V:1] F4D4- | 
[V:2] z4F4 | 
[V:3] z8 | 
[V:4] z8 | 
[V:1] D2C2B,4 | 
[V:2] G8 | 
[V:3] z8 | 
[V:4] z8 | 
[V:1] A,8 | 
[V:2] F4D4- | 
[V:3] z8 | 
[V:4] z8 | 
[V:1] z4D4 | 
[V:2] D2C2B,4 | 
[V:3] z8 | 
[V:4] z8 | 
[V:1] C4F4 | 
[V:2] A,8 | 
[V:3] z8 | 
[V:4] z8 | 
[V:1] E4A4- | 
[V:2] z4D4 | 
[V:3] z8 | 
[V:4] z8 | 
[V:1] A4D4 | 
[V:2] C4F4 | 
[V:3] z8 | 
[V:4] z8 | 
[V:1] G4E4 | 
[V:2] E4A4- | 
[V:3] z8 | 
[V:4] z8 | 
[V:1] F6E2 | 
[V:2] A4D4 | 
[V:3] z8 | 
[V:4] z8 | 
[V:1] D4C4- | 
[V:2] G4E4 | 
[V:3] z8 | 
[V:4] z8 | 
[V:1] C4D4 | 
[V:2] F6E2 | 
[V:3] z8 | 
[V:4] z8 | 
[V:1] F4E4 | 
[V:2] D4C4- | 
[V:3] z8 | 
[V:4] z8 | 
[V:1] G4F4 | 
[V:2] C4D4 | 
[V:3] z8 | 
[V:4] z8 | 
[V:1] A4G4 | 
[V:2] F4E4 | 
[V:3] z8 | 
[V:4] z8 | 
[V:1] E4F4- | 
[V:2] G4F4 | 
[V:3] z8 | 
[V:4] z8 | 
[V:1] F4G4- | 
[V:2] A4G4 | 
[V:3] z8 | 
[V:4] z8 | 
[V:1] G4C4 | 
[V:2] E8 | 
[V:3] z8 | 
[V:4] z8 | 
[V:1] D8 | 
[V:2] F8 | 
[V:3] z8 | 
[V:4] z8 | 
[V:1] E8- | 
[V:2] E8 | 
[V:3] z8 | 
[V:4] z8 | 
[V:1] E8 | 
[V:2] z8 | 
[V:3] z8 | 
[V:4] C,8 | 
[V:1] A,8- | 
[V:2] z8 | 
[V:3] z8 | 
[V:4] D,2F,3E,D,2 | 
[V:1] A,8 | 
[V:2] z8 | 
[V:3] z8 | 
[V:4] C,2D,3C,A,,2 | 
[V:1] =B,8- | 
[V:2] z8 | 
[V:3] z8 | 
[V:4] G,,2G,4F,E, | 
[V:1] B,8 | 
[V:2] z8 | 
[V:3] z8 | 
[V:4] D,2E,3F,G,2 | 
[V:1] C8- | 
[V:2] z8 | 
[V:3] z8 | 
[V:4] E,2A,3G,F,2- | 
[V:1] C8 | 
[V:2] z8 | 
[V:3] z8 | 
[V:4] F,2E,D,E,3A,, | 
[V:1] D8 | 
[V:2] z8 | 
[V:3] z8 | 
[V:4] D,8 | 
[V:1] z8 | 
[V:2] F8 | 
[V:3] z8 | 
[V:4] A,8 | 
[V:1] z8 | 
[V:2] E4C4 | 
[V:3] z8 | 
[V:4] G,4E,4 | 
[V:1] F8 | 
[V:2] D8 | 
[V:3] z8 | 
[V:4] F,6E,D, | 
[V:1] E4C4 | 
[V:2] E8 | 
[V:3] z8 | 
[V:4] C,8 | 
[V:1] D8 | 
[V:2] z4F4 | 
[V:3] z8 | 
[V:4] z8 | 
[V:1] E8 | 
[V:2] E4G4 | 
[V:3] z8 | 
[V:4] z8 | 
[V:1] z4F4 | 
[V:2] F6ED | 
[V:3] z8 | 
[V:4] z8 | 
[V:1] E4G4 | 
[V:2] ^C6=B,2 | 
[V:3] z8 | 
[V:4] z8 | 
[V:1] F6ED | 
[V:2] D8 | 
[V:3] z8 | 
[V:4] z8 | 
[V:1] ^C6=B,2 | 
[V:2] E8 | 
[V:3] z8 | 
[V:4] z8 | 
[V:1] [M:3/1]D12 | 
[V:2] [M:3/1]D12 | 
[V:3] [M:3/1]D12- | 
[V:4] [M:3/1]F,8A,4 | 
[V:1] z12 | 
[V:2] z12 | 
[V:3] D4C8 | 
[V:4] A,6G,2E,4 | 
[V:1] F8A4 | 
[V:2] A4B4A4 | 
[V:3] D12- | 
[V:4] D,8F,4- | 
[V:1] A6G2E4 | 
[V:2] d8^c4 | 
[V:3] D4z4z4 | 
[V:4] F,4E,8 | 
[V:1] F8E4 | 
[V:2] d8z4 | 
[V:3] A12- | 
[V:4] D,8C,4 | 
[V:1] C4D8 | 
[V:2] z4D8 | 
[V:3] A4G8 | 
[V:4] A,,4B,,8 | 
[V:1] C8A,4 | 
[V:2] E4F6D2 | 
[V:3] A12- | 
[V:4] A,,8D,4- | 
[V:1] D8^C4 | 
[V:2] D4E6D2 | 
[V:3] A4z4z4 | 
[V:4] D,4A,,8 | 
[V:1] D4A6G2 | 
[V:2] D8F4 | 
[V:3] d12- | 
[V:4] D,12 | 
[V:1] F4E6D2 | 
[V:2] D4A8 | 
[V:3] d4c8 | 
[V:4] z4z4A,,4 | 
[V:1] D12 | 
[V:2] F4G8 | 
[V:3] d12- | 
[V:4] B,,8G,,4- | 
[V:1] G8^F4 | 
[V:2] B4A8 | 
[V:3] d4z4z4 | 
[V:4] G,,4D,8 | 
[V:1] G12 | 
[V:2] G6A2B4 | 
[V:3] d12- | 
[V:4] G,,4G,8 | 
[V:1] z12 | 
[V:2] A8G4 | 
[V:3] d4c8 | 
[V:4] F,4E,8 | 
[V:1] F12 | 
[V:2] A12 | 
[V:3] d12- | 
[V:4] D,12- | 
[V:1] D4E8 | 
[V:2] F4G8 | 
[V:3] d4z4z4 | 
[V:4] D,4C,8 | 
[V:1] F8D4 | 
[V:2] F4D4F4- | 
[V:3] A12- | 
[V:4] D,12 | 
[V:1] D8^C4 | 
[V:2] F4E8 | 
[V:3] A4G8 | 
[V:4] z12 | 
[V:1] D4F6E2 | 
[V:2] D4d8 | 
[V:3] A12- | 
[V:4] F,12- | 
[V:1] A6G2G2F2 | 
[V:2] c4B8 | 
[V:3] A4z4z4 | 
[V:4] F,4G,8 | 
[V:1] A12 | 
[V:2] A6G2F4 | 
[V:3] D12- | 
[V:4] F,4D,6C,2 | 
[V:1] z12 | 
[V:2] D4E6D2 | 
[V:3] D4^C8 | 
[V:4] B,,4A,,8 | 
[V:1] A8F4- | 
[V:2] D12- | 
[V:3] D12- | 
[V:4] z4z4D,4 | 
[V:1] F2G2A8 | 
[V:2] D12 | 
[V:3] D12- | 
[V:4] D,12- | 
[V:1] D12 |]  
[V:2] A12 |]  
[V:3] D12 |]  
[V:4] D,12 |]  



